icons/bell.svg

<?xml version="1.0" standalone="no"?><!-- Generator: Gravit.io --><svg xmlns="http://www.w3.org/2000/svg" xmlns:xlink="http://www.w3.org/1999/xlink" width="96" height="96"><path d=" M 54.75684356453 12.99622154533 C 62.42756302720473 14.997443501994564 69.16436038859081 19.82981322469123 73.6 26.6 C 80.9 37.7 84.5 50.9 84 64.2 L 83.81 68 L 88 68 C 89.1 68 90.1 68.4 90.8 69.2 C 91.6 69.9 92 70.9 92 72 C 92 73.1 91.6 74.1 90.8 74.8 C 90.1 75.6 89.1 76 88 76 L 60 76 L 60 76 C 60 79.2 58.7 82.2 56.5 84.5 C 54.2 86.7 51.2 88 48 88 C 44.8 88 41.8 86.7 39.5 84.5 C 37.3 82.2 36 79.2 36 76 L 8 76 C 6.9 76 5.9 75.6 5.2 74.8 C 4.4 74.1 4 73.1 4 72 C 4 70.9 4.4 69.9 5.2 69.2 C 5.9 68.4 6.9 68 8 68 L 12.19 68 L 12 64.2 C 11.5 50.9 15.1 37.7 22.4 26.6 C 26.835639611409196 19.82981322469123 33.57243697279527 14.997443501994564 41.24315643547 12.99622154533 C 42.16509312949407 10.42637736540244 46.07012397190739 6 48 6 C 49.9298760280926 6 53.834906870505925 10.426377365402438 54.75684356453 12.99622154533 Z  M 20.168 68 L 75.832 68 L 76 63.8 C 76.5 52.2 73.3 40.7 66.9 31 C 62.7 24.5 55.7 20.4 48 20 C 40.3 20.4 33.3 24.5 29.1 31 C 22.7 40.7 19.5 52.2 20 63.8 L 20.168 68 L 20.168 68 Z  M 52 76 C 52 77.1 51.6 78.1 50.8 78.8 C 50.1 79.6 49.1 80 48 80 C 46.9 80 45.9 79.6 45.2 78.8 C 44.4 78.1 44 77.1 44 76 L 52 76 L 52 76 Z " fill-rule="evenodd" fill="#454545" stroke="none"/><mask id="_mask_EnOCGxBjaCYAPmlwtUi1KO38cNB9qmXN"><path d=" M 54.75684356453 12.99622154533 C 62.42756302720473 14.997443501994564 69.16436038859081 19.82981322469123 73.6 26.6 C 80.9 37.7 84.5 50.9 84 64.2 L 83.81 68 L 88 68 C 89.1 68 90.1 68.4 90.8 69.2 C 91.6 69.9 92 70.9 92 72 C 92 73.1 91.6 74.1 90.8 74.8 C 90.1 75.6 89.1 76 88 76 L 60 76 L 60 76 C 60 79.2 58.7 82.2 56.5 84.5 C 54.2 86.7 51.2 88 48 88 C 44.8 88 41.8 86.7 39.5 84.5 C 37.3 82.2 36 79.2 36 76 L 8 76 C 6.9 76 5.9 75.6 5.2 74.8 C 4.4 74.1 4 73.1 4 72 C 4 70.9 4.4 69.9 5.2 69.2 C 5.9 68.4 6.9 68 8 68 L 12.19 68 L 12 64.2 C 11.5 50.9 15.1 37.7 22.4 26.6 C 26.835639611409196 19.82981322469123 33.57243697279527 14.997443501994564 41.24315643547 12.99622154533 C 42.16509312949407 10.42637736540244 46.07012397190739 6 48 6 C 49.9298760280926 6 53.834906870505925 10.426377365402438 54.75684356453 12.99622154533 Z  M 20.168 68 L 75.832 68 L 76 63.8 C 76.5 52.2 73.3 40.7 66.9 31 C 62.7 24.5 55.7 20.4 48 20 C 40.3 20.4 33.3 24.5 29.1 31 C 22.7 40.7 19.5 52.2 20 63.8 L 20.168 68 L 20.168 68 Z  M 52 76 C 52 77.1 51.6 78.1 50.8 78.8 C 50.1 79.6 49.1 80 48 80 C 46.9 80 45.9 79.6 45.2 78.8 C 44.4 78.1 44 77.1 44 76 L 52 76 L 52 76 Z " fill-rule="evenodd" fill="white" stroke="none"/></mask><path d=" M 54.75684356453 12.99622154533 C 62.42756302720473 14.997443501994564 69.16436038859081 19.82981322469123 73.6 26.6 C 80.9 37.7 84.5 50.9 84 64.2 L 83.81 68 L 88 68 C 89.1 68 90.1 68.4 90.8 69.2 C 91.6 69.9 92 70.9 92 72 C 92 73.1 91.6 74.1 90.8 74.8 C 90.1 75.6 89.1 76 88 76 L 60 76 L 60 76 C 60 79.2 58.7 82.2 56.5 84.5 C 54.2 86.7 51.2 88 48 88 C 44.8 88 41.8 86.7 39.5 84.5 C 37.3 82.2 36 79.2 36 76 L 8 76 C 6.9 76 5.9 75.6 5.2 74.8 C 4.4 74.1 4 73.1 4 72 C 4 70.9 4.4 69.9 5.2 69.2 C 5.9 68.4 6.9 68 8 68 L 12.19 68 L 12 64.2 C 11.5 50.9 15.1 37.7 22.4 26.6 C 26.835639611409196 19.82981322469123 33.57243697279527 14.997443501994564 41.24315643547 12.99622154533 C 42.16509312949407 10.42637736540244 46.07012397190739 6 48 6 C 49.9298760280926 6 53.834906870505925 10.426377365402438 54.75684356453 12.99622154533 Z  M 20.168 68 L 75.832 68 L 76 63.8 C 76.5 52.2 73.3 40.7 66.9 31 C 62.7 24.5 55.7 20.4 48 20 C 40.3 20.4 33.3 24.5 29.1 31 C 22.7 40.7 19.5 52.2 20 63.8 L 20.168 68 L 20.168 68 Z  M 52 76 C 52 77.1 51.6 78.1 50.8 78.8 C 50.1 79.6 49.1 80 48 80 C 46.9 80 45.9 79.6 45.2 78.8 C 44.4 78.1 44 77.1 44 76 L 52 76 L 52 76 Z " fill-rule="evenodd" fill="none" stroke="none" stroke-width="16" mask="url(#_mask_EnOCGxBjaCYAPmlwtUi1KO38cNB9qmXN)"/></svg>

<svg xmlns="http://www.w3.org/2000/svg" width="96" height="96"><path d="M54.757 12.996C62.427 14.997 69.164 19.83 73.6 26.6 80.9 37.7 84.5 50.9 84 64.2l-.19 3.8H88c1.1 0 2.1.4 2.8 1.2.8.7 1.2 1.7 1.2 2.8 0 1.1-.4 2.1-1.2 2.8-.7.8-1.7 1.2-2.8 1.2H60c0 3.2-1.3 6.2-3.5 8.5-2.3 2.2-5.3 3.5-8.5 3.5s-6.2-1.3-8.5-3.5C37.3 82.2 36 79.2 36 76H8c-1.1 0-2.1-.4-2.8-1.2C4.4 74.1 4 73.1 4 72c0-1.1.4-2.1 1.2-2.8.7-.8 1.7-1.2 2.8-1.2h4.19L12 64.2c-.5-13.3 3.1-26.5 10.4-37.6 4.436-6.77 11.172-11.603 18.843-13.604C42.165 10.426 46.07 6 48 6c1.93 0 5.835 4.426 6.757 6.996zM20.168 68h55.664L76 63.8c.5-11.6-2.7-23.1-9.1-32.8-4.2-6.5-11.2-10.6-18.9-11-7.7.4-14.7 4.5-18.9 11-6.4 9.7-9.6 21.2-9.1 32.8l.168 4.2zM52 76c0 1.1-.4 2.1-1.2 2.8-.7.8-1.7 1.2-2.8 1.2-1.1 0-2.1-.4-2.8-1.2-.8-.7-1.2-1.7-1.2-2.8h8z" fill-rule="evenodd" fill="#454545"/></svg>
